icons/moon-clear-line.svg

<svg viewBox="0 0 24 24" fill="currentColor" xmlns="http://www.w3.org/2000/svg"><path d="M10 6C10 10.4183 13.5817 14 18 14C19.4386 14 20.7885 13.6203 21.9549 12.9556C21.4738 18.0302 17.2005 22 12 22C6.47715 22 2 17.5228 2 12C2 6.79948 5.9698 2.52616 11.0444 2.04507C10.3797 3.21152 10 4.56142 10 6ZM4 12C4 16.4183 7.58172 20 12 20C14.9654 20 17.5757 18.3788 18.9571 15.9546C18.6407 15.9848 18.3214 16 18 16C12.4772 16 8 11.5228 8 6C8 5.67863 8.01524 5.35933 8.04536 5.04293C5.62119 6.42426 4 9.03458 4 12ZM18.1642 2.29104L19 2.5V3.5L18.1642 3.70896C17.4476 3.8881 16.8881 4.4476 16.709 5.16417L16.5 6H15.5L15.291 5.16417C15.1119 4.4476 14.5524 3.8881 13.8358 3.70896L13 3.5V2.5L13.8358 2.29104C14.5524 2.1119 15.1119 1.5524 15.291 0.835829L15.5 0H16.5L16.709 0.835829C16.8881 1.5524 17.4476 2.1119 18.1642 2.29104ZM23.1642 7.29104L24 7.5V8.5L23.1642 8.70896C22.4476 8.8881 21.8881 9.4476 21.709 10.1642L21.5 11H20.5L20.291 10.1642C20.1119 9.4476 19.5524 8.8881 18.8358 8.70896L18 8.5V7.5L18.8358 7.29104C19.5524 7.1119 20.1119 6.5524 20.291 5.83583L20.5 5H21.5L21.709 5.83583C21.8881 6.5524 22.4476 7.1119 23.1642 7.29104Z"/></svg>

<svg xmlns="http://www.w3.org/2000/svg" viewBox="0 0 24 24">
    <g>
        <path fill="none" d="M0 0h24v24H0z"/>
        <path fill-rule="nonzero" d="M10 6a8 8 0 0 0 11.955 6.956C21.474 18.03 17.2 22 12 22 6.477 22 2 17.523 2 12c0-5.2 3.97-9.474 9.044-9.955A7.963 7.963 0 0 0 10 6zm-6 6a8 8 0 0 0 8 8 8.006 8.006 0 0 0 6.957-4.045c-.316.03-.636.045-.957.045-5.523 0-10-4.477-10-10 0-.321.015-.64.045-.957A8.006 8.006 0 0 0 4 12zm14.164-9.709L19 2.5v1l-.836.209a2 2 0 0 0-1.455 1.455L16.5 6h-1l-.209-.836a2 2 0 0 0-1.455-1.455L13 3.5v-1l.836-.209A2 2 0 0 0 15.29.836L15.5 0h1l.209.836a2 2 0 0 0 1.455 1.455zm5 5L24 7.5v1l-.836.209a2 2 0 0 0-1.455 1.455L21.5 11h-1l-.209-.836a2 2 0 0 0-1.455-1.455L18 8.5v-1l.836-.209a2 2 0 0 0 1.455-1.455L20.5 5h1l.209.836a2 2 0 0 0 1.455 1.455z"/>
    </g>
</svg>
